X: 14624
T: Gan Ainm
R: reel
M: 4/4
K: Aminor
B|:A3 c BGGB|cedB cBAG|EAAc BGGB|c2Bc ABcB:|
d|:eAce aged|eAce d3 f|eAce aged|c2Bc ABcd:|

